X: 128
T: Xiu hebao
L: 1/8
M: 2/4
K: F
A< c A G [I:setbarnb 1]| 
A/ G/ F D C | 
c3f | 
d c G A | 
c2G A | 
c f A G | 
F F F A | 
G4 | 
D F G G | 
c2d3/ c/ | 
c A c A | 
G/ A/ G/ F/ D C | 
c f c3/ A/ | 
A G F D | 
C3D | 
C4 | 
F> G A c | 
G/ A/ G/ F/ D C | 
c f c3/ A/ | 
A G F D | 
C3D | 
C4 |]

@@@ Tune index: 9002
